X: 63
T:Riding On A Load Of Hay
M:2/4
L:1/8
Q:200
C:Traditional
S:A Little Couple Dance Musik
R:Polka
N:Second in set with "King of the Faeries
Q:300
K:Em
|:"Em"E>F GA|"Em"Be ef/2e/2|"Bm"dB A/2B/2A/2G/2|"D"FD D/2E/2F/2D/2|
"Em"E>F GA|"Em"Be ef/2g/2|"G"ge "D"af|1"Em"e2eB:|2"Em"e2 ef||:!
"Em"g2 f>f| "Bm "ed "Em"BB/2^c/2|"D"dA A/2B/2A/2G/2|"D"FDD2|1
"Em"ge/2g/2 "D"fg/2f/2|"Em"ed B> ^c|"D"dA B/2A/2G/2F/2|"Em"E2E2:|2
"Em"EG "Bm"FA|"Em"GB e>f|"Em"ge"D"af|"Em"e2e2||
